X:1
T:Title
%%score { ( 1 3 ) | 2 }
L:1/8
M:4/4
K:G
V:1 treble nm="Grand Piano"
V:3 treble 
V:2 bass 
V:1
 z4 z2[Q:1/4=106] [B,D]2 | [DB]3 [DB] [Ec]2 [DB]2 | [DB]3 [CA] [G,B,G]2 [G,DF]2 | %3
 [G,DF]2 [G,CE]2 [CEG]3 [G,CE] | [CE]2 [G,B,D]4 G2 | G3 F F2 A2 | A3 G G2 B2 | %7
 d2 [DA]2 [^CG]2 [CE]2 |[M:3/4] E2 D4 |[M:1/4] D2 |[M:4/4] B3 B [=Fd]2 [Fd]2 | %11
 [EG]3 [EG] [Ec]2 [Ge]2 | e2 d2 d2 B2 | [GB]2 [FA]4 [Fc]2 | B3 c d2 [A^d]2 | [^Ge]2 [GB]2 dcBA | %16
 G3 B B2 F2 |[M:3/4] [CA]2 [B,G]4 |] %18
V:2
 z4 z2 [G,,G,]2 | [G,,G,]3 [G,,G,] [G,,G,]2 [G,,G,]2 | [D,F,]3 [D,F,] G,,2 B,,2 | C,2 C,2 C,3 E, | %4
 G,2 G,,4 [G,B,D]2 | [D,B,D]3 [D,A,D] [D,A,D]2 [F,CD]2 | [G,CD]3 [G,B,D] [G,B,D]2 [G,DG]2 | %7
 [A,DF]2[K:bass] [A,,F,]2 [A,,E,]2 [A,,G,]2 |[M:3/4] [D,G,^C]2 [D,F,]4 |[M:1/4] [F,C]2 | %10
[M:4/4] [G,B,D]3 [G,D] [B,,G,]2 [B,,G,]2 | [C,G,]3 [C,G,] [C,G,]2 [C,C]2 | %12
 [G,CG]2 [G,B,G]2 [G,B,G]2 [G,DG]2 | [D,D]2 [D,D]4 [D,D]2 | %14
 [G,DG]3 [G,A,G] [G,B,G]2[K:bass] [=F,B,]2 | [E,B,]2 [E,E]2 [A,EA]2 [C,C]2 | %16
 [D,B,D]3 [D,G,D] [D,F,D]2 [D,C]2 |[M:3/4] [G,,D,]2 [G,,D,]4 |] %18
V:3
 x8 | x8 | x8 | x8 | x8 | x8 | x8 | x8 |[M:3/4] x6 |[M:1/4] x2 |[M:4/4] x8 | x8 | x8 | x8 | x8 | %15
 z4 z2 E2 | x8 |[M:3/4] x6 |] %18

